X:1
T:Penitentia, 10.10.10.10
T:Penitentia, 10.10.10.10
T:Edward Dearle, 1874
T:Public Domain Courtesy of the Cyber Hymnal™
C:Edward Dearle, 1874
Z:Public Domain
Z:Courtesy of the Cyber Hymnal™
%%score ( 1 2 ) ( 3 4 )
L:1/8
M:4/4
K:Eb
V:1 treble 
V:2 treble 
V:3 bass 
V:4 bass 
V:1
 [EG]4 [EG]2 [DA]2 | [EB]4 E4 | [EF]3 [EF] [DG]2 [DA]2 | [EG]8 | [EG]4 [DF]2 E2 | [Ec]4 [EB]4 | %6
 [EB]3 [EB] [FA]2 [EG]2 | F8 | [EG]4 [EG]2 [DA]2 | [EB]4 [_DE]4 | [Cc]3 [Ec] [=Ec]2 [EG]2 | [FA]8 | %12
 [FA]4 [EG]2 [DF]2 | [EB]2 [B,E]2 [CE]2 [FA]2 | [EG]4 [DF]4 | E8 |] %16
V:2
 x8 | x4 E4 | x8 | x8 | x6 E2 | x8 | x8 | (E4 D4) | x8 | x8 | x8 | x8 | x8 | x8 | x8 | E8 |] %16
V:3
 [E,B,]4 [E,B,]2 [F,A,]2 | G,4 [C,G,]4 | [A,,C]3 [A,,C] [B,,B,]2 [B,,B,]2 | [E,B,]8 | %4
 [E,B,]4 [F,B,]2 [G,B,]2 | A,4 [G,B,]4 | [F,C]3 [F,C] [A,,C]2 [A,,C]2 | (F,4 B,4) | %8
 [E,B,]4 [E,B,]2 [F,A,]2 | G,4 [G,,B,]4 | [A,,E,]3 [A,,A,] [C,G,]2 [C,C]2 | [F,C]8 | %12
 [F,C]4 B,2 [A,B,]2 | [G,B,]2 G,2 [C,G,]2 [A,,C]2 | [B,,B,]4 [B,,A,]4 | [E,G,]8 |] %16
V:4
 x8 | G,4 x4 | x8 | x8 | x8 | A,4 x4 | x8 | B,,8 | x8 | G,4 x4 | x8 | x8 | x4 B,2 x2 | x2 G,2 x4 | %14
 x8 | x8 |] %16

